X:0257
T:An ye had been where I ha'e been.
N:bar 14 is |(dc)(BA) G2g2| in the book (c sharp)
M:2/4
L:1/16
Q:1/4=72
I: :: ::
Z:Jack Campin * www.campin.me.uk * 2009
K:D Major
(de)|f4    (gfed)| g4      (agfe) | f2ef   gfed|f2a2 z2
 de |f4 ({g}f2)ed| g4   ({a}g2)fe | fga2   e3d |B2d4 :|
 fg |a2A2   A2B=c| B2AB     G2(fg)| a2A2   a2A2|f2a2 z2
(fg |a2)A2  A2B=c|(d=c)(BA) G2g2  |(fga2) Te3d |B2d4 :|
<end>
<start>
